icons/earthquake-fill.svg

<svg xmlns="http://www.w3.org/2000/svg" width="24" height="24" fill="none"><g clip-path="url(#a)"><g><path fill="#121212" d="M11.327 1.61197C11.4948 1.45926 11.7096 1.36816 11.936 1.35362C12.1624 1.33908 12.387 1.40197 12.573 1.53197L12.673 1.61197L23 11H20V20C20 20.2449 19.91 20.4813 19.7473 20.6643C19.5845 20.8474 19.3603 20.9643 19.117 20.993L19 21H12.5L15 17L11.5 14L15.5 11L13 8.99997L13.5 5.99997L10.5 8.99997L13 11L8 14L11.75 17.5L8.5 21H5C4.75507 20.9999 4.51866 20.91 4.33563 20.7473C4.15259 20.5845 4.03566 20.3602 4.007 20.117L4 20V11H1L11.327 1.61197Z"/></g></g><defs><clipPath id="a"><rect width="24" height="24" fill="white"/></clipPath></defs></svg>

<svg width="24" height="24" fill="none" xmlns="http://www.w3.org/2000/svg"><g clip-path="url(#a)"><path d="M11.327 1.612a1 1 0 0 1 1.246-.08l.1.08L23 11h-3v9a1 1 0 0 1-.883.993L19 21h-6.5l2.5-4-3.5-3 4-3L13 9l.5-3-3 3 2.5 2-5 3 3.75 3.5L8.5 21H5a1 1 0 0 1-.993-.883L4 20v-9H1l10.327-9.388Z" /></g><defs><clipPath id="a"><path fill="#fff" d="M0 0h24v24H0z"/></clipPath></defs></svg>
